!!!SOCIAL_FUNCTION:	cremation legend songs
!!!PDT:	1932
!!!OTL: No_1_I_Will_Make_a_Flute.krn
!!!REG: Southwest
!!!LANG: Non-Tone
!!!LING_GROUP: Yuman-Cochimi
**kern
*staff1
=1-
*clefF4
*k[b-e-a-d-]
*M2/4
4A-\
8A-\L
8B-\J
=2
2c\
=3
8.c\L
16B-\Jk
4A-\
=4||
*M3/4
8.B-\L
16c\Jk
8A-\L
8c\J
8.B-\L
16A-\Jk
=5||
*M2/4
4A-\
8.A-\L
16c\Jk
=6
4A-\
8A-\
8r
=7
4A-\
8A-\L
8B-\J
=8
12A-\L
12B-\
12c\J
8.B-\L
16A-\Jk
=9
4A-\
8.A-\L
16c\Jk
=10
4A-\
8A-\
8r
=11
4r
12A-\L
12B-\
12A-\J
=12
2c;\
=13
8.c\L
16B-\Jk
4A-\
=14
8B-\L
8B-\J
8G\L
8B-\J
=15
4B-\
8r
8c\
=16
8.B-\L
16c\Jk
8G\L
8c\J
=17
4B-\
4r
=18
8G\L
8G\J
8.G\L
16B-\Jk
=19
4G\
8G\
8r
=20
4A-\
8A-\L
8B-\J
=21
2c;\
=22
8.c\L
16B-\Jk
4A-\
=23||
*M3/4
8.A-\L
16c\Jk
8A-\L
8c\J
8.B-\L
16A-\Jk
=24||
*M2/4
4A-\
8.A-\L
16c\Jk
=25
4A-\
8A-\
8r
=26
4A-\
8A-\L
8B-\J
=27
12A-\L
12B-\
12c\J
8.B-\L
16A-\Jk
=28
4A-\
8.A-\L
16c\Jk
=29
4A-\
8A-\
8r
==
*-
